src/assets/logos/couger.svg

<svg height="30" viewBox="0 0 204 30" width="204" xmlns="http://www.w3.org/2000/svg"><path d="m3.70005209 24.8567602c-3.51030583-3.5103059-3.70005209-3.9846715-3.70005209-9.5821862 0-10.15142496 5.21802217-15.17970087 15.7489397-15.17970087 7.8744698 0 9.8668055.75898504 9.8668055 3.4154327 0 2.94106704-1.7077163 3.79492521-3.3205595 1.70771634-1.9923358-2.75132078-10.151425-2.46670139-12.99761892.37949253-1.89746261 1.80258947-2.182082 3.1308133-2.182082 8.8232011 0 6.1667535.18974626 6.9257385 2.65644766 9.0129474 3.70005206 3.1308133 9.01294736 3.1308133 12.90274576-.1897462l2.941067-2.4667014v2.941067c0 3.7949252-2.4667014 4.8385297-11.5745219 4.8385297-6.45137286 0-6.73599226-.0948732-10.34117121-3.7000521zm38.32874471 1.8025895c-4.5539103-2.7513208-6.3564998-6.1667535-6.3564998-11.7642682 0-9.39243993 5.6923879-14.80020837 15.5591934-14.80020837 9.7719325 0 15.5591934 5.31289531 15.4643203 14.23096957-.0948731 5.5026416-2.3718283 9.9616787-6.2616266 12.333507-4.1744177 2.5615745-14.2309696 2.6564476-18.4053873 0zm15.274574-3.8897984c2.0872089-2.3718283 2.4667014-3.8897983 2.4667014-8.6334549 0-5.02827588-.2846194-5.97700718-2.7513208-8.44370857-3.7949252-3.70005209-7.7795967-3.70005209-11.5745219 0-2.3718283 2.46670139-2.7513208 3.51030582-2.7513208 8.15908917 0 5.3128953 1.8025895 10.3411713 3.9846715 11.1950294.6641119.2846194 2.7513208.5692388 4.7436565.5692388 2.7513208.0948731 3.9846715-.4743656 5.8821341-2.8461939zm25.6157452 4.6487834c-3.3205596-1.5179701-4.0795446-4.364164-4.4590371-16.1284322l-.2846194-11.19502937h3.1308133 3.1308133v10.34117117c0 8.4437087.2846194 10.7206638 1.7077163 12.333507 1.8025895 2.3718283 6.2616266 2.8461939 9.4873131 1.1384776 1.9923357-1.0436045 2.0872089-1.7077164 2.0872089-12.4283801v-11.38477567h2.3718286 2.371828v9.96167867c0 10.8155369-1.328224 15.7489397-4.5539104 17.456656-2.4667014 1.3282239-12.3335069 1.2333507-14.9899546-.0948731zm36.905648-.758985c-8.443709-5.1231491-7.969343-19.25924553.853858-24.66701396 3.225686-1.99233574 10.625791-2.56157452 16.792544-1.32822383 2.751321.56923879 3.03594.94873131 2.466701 3.13081331-.853858 3.41543269-.948731 3.41543269-3.889798 1.13847756-4.743656-3.79492521-12.618126-1.70771634-14.515589 3.79492522-1.423097 4.0795446-1.328224 7.8744698.284619 11.7642682 1.707717 3.8897983 4.269291 5.4077684 8.918075 5.0282759l3.510306-.2846194.284619-4.9334028.284619-5.0282759h3.32056 3.225686v5.5975147c0 5.4077684-.094873 5.5975147-2.941067 6.6411191-5.028276 1.7077164-15.084827 1.3282239-18.595133-.8538581zm33.869707-12.333507v-14.23096957h8.064216c7.400105 0 8.064216.18974626 8.064216 1.89746261 0 1.61284322-.664111 1.89746261-4.743656 1.89746261h-4.743657v3.79492522 3.79492523h4.269291c3.605179 0 4.269291.2846194 4.269291 1.8974626s-.664112 1.8974626-4.269291 1.8974626h-4.269291v4.7436565 4.7436565h4.743657c4.079545 0 4.743656.2846194 4.743656 1.8974627 0 1.7077163-.664111 1.8974626-8.064216 1.8974626h-8.064216zm27.892701 0 .094873-14.23096957h7.684723c6.166754 0 8.253963.37949252 9.961679 1.80258948 4.174418 3.41543269 2.371828 10.81553689-3.225686 12.71299949-.664112.1897462.379492 2.2769551 2.941067 5.6923878 5.787261 7.6847236 5.882134 8.2539624 1.423097 8.2539624-3.510306 0-3.889799-.2846194-7.87447-6.3564998l-4.269291-6.4513728-.284619 6.4513728-.28462 6.3564998h-3.03594-3.130813zm12.333507-3.4154327c3.130813-3.03594017.758985-7.96934296-3.794926-7.96934296-2.087208 0-2.276955.37949253-2.276955 4.74365653 0 4.36416403.189747 4.74365653 2.276955 4.74365653 1.328224 0 3.035941-.6641119 3.794926-1.5179701z" fill-rule="evenodd" transform="translate(0 .805)"/></svg>

<svg xmlns="http://www.w3.org/2000/svg" width="204" height="30" viewBox="0 0 204 30">
  <path fill-rule="evenodd" d="M3.70005209,24.8567602 C0.189746261,21.3464543 -2.66453526e-14,20.8720887 -2.66453526e-14,15.274574 C-2.66453526e-14,5.12314904 5.21802217,0.0948731304 15.7489397,0.0948731304 C23.6234095,0.0948731304 25.6157452,0.853858174 25.6157452,3.51030583 C25.6157452,6.45137287 23.9080289,7.30523104 22.2951857,5.21802217 C20.3028499,2.46670139 12.1437607,2.75132078 9.29756678,5.5975147 C7.40010417,7.40010417 7.11548478,8.728328 7.11548478,14.4207158 C7.11548478,20.5874693 7.30523104,21.3464543 9.77193244,23.4336632 C13.4719845,26.5644765 18.7848798,26.5644765 22.6746782,23.243917 L25.6157452,20.7772156 L25.6157452,23.7182826 C25.6157452,27.5132078 23.1490438,28.5568123 14.0412233,28.5568123 C7.58985044,28.5568123 7.30523104,28.4619391 3.70005209,24.8567602 Z M42.0287968,26.6593497 C37.4748865,23.9080289 35.672297,20.4925962 35.672297,14.8950815 C35.672297,5.50264157 41.3646849,0.0948731304 51.2314904,0.0948731304 C61.0034229,0.0948731304 66.7906838,5.40776844 66.6958107,14.3258427 C66.6009376,19.8284843 64.3239824,24.2875214 60.4341841,26.6593497 C56.2597664,29.2209242 46.2032145,29.3157973 42.0287968,26.6593497 Z M57.3033708,22.7695513 C59.3905797,20.397723 59.7700722,18.879753 59.7700722,14.1360964 C59.7700722,9.10782052 59.4854528,8.15908922 57.0187514,5.69238783 C53.2238262,1.99233574 49.2391547,1.99233574 45.4442295,5.69238783 C43.0724012,8.15908922 42.6929087,9.20269365 42.6929087,13.851477 C42.6929087,19.1643723 44.4954982,24.1926483 46.6775802,25.0465064 C47.3416921,25.3311258 49.428901,25.6157452 51.4212367,25.6157452 C54.1725575,25.7106183 55.4059082,25.1413796 57.3033708,22.7695513 Z M82.919116,27.4183347 C79.5985564,25.9003646 78.8395714,23.0541707 78.4600789,11.2899025 L78.1754595,0.0948731304 L81.3062728,0.0948731304 L84.4370861,0.0948731304 L84.4370861,10.4360443 C84.4370861,18.879753 84.7217055,21.1567081 86.1448024,22.7695513 C87.9473919,25.1413796 92.406429,25.6157452 95.6321155,23.9080289 C97.6244512,22.8644244 97.7193244,22.2003125 97.7193244,11.4796488 L97.7193244,0.0948731304 L100.091153,0.0948731304 L102.462981,0.0948731304 L102.462981,10.0565518 C102.462981,20.8720887 101.134757,25.8054915 97.9090706,27.5132078 C95.4423692,28.8414317 85.5755637,28.7465585 82.919116,27.4183347 Z M119.824764,26.6593497 C111.381055,21.5362006 111.855421,7.40010417 120.678622,1.99233574 C123.904308,-1.00211506e-13 131.304413,-0.569238783 137.471166,0.664111913 C140.222487,1.2333507 140.507106,1.61284322 139.937867,3.79492522 C139.084009,7.21035791 138.989136,7.21035791 136.048069,4.93340278 C131.304413,1.13847757 123.429943,3.22568644 121.53248,8.728328 C120.109383,12.8078726 120.204256,16.6027978 121.817099,20.4925962 C123.524816,24.3823945 126.08639,25.9003646 130.735174,25.5208721 L134.24548,25.2362527 L134.530099,20.3028499 L134.814718,15.274574 L138.135278,15.274574 L141.360964,15.274574 L141.360964,20.8720887 C141.360964,26.2798571 141.266091,26.4696034 138.419897,27.5132078 C133.391621,29.2209242 123.33507,28.8414317 119.824764,26.6593497 Z M153.694471,14.3258427 L153.694471,0.0948731304 L161.758687,0.0948731304 C169.158792,0.0948731304 169.822903,0.284619391 169.822903,1.99233574 C169.822903,3.60517896 169.158792,3.88979835 165.079247,3.88979835 L160.33559,3.88979835 L160.33559,7.68472357 L160.33559,11.4796488 L164.604881,11.4796488 C168.21006,11.4796488 168.874172,11.7642682 168.874172,13.3771114 C168.874172,14.9899546 168.21006,15.274574 164.604881,15.274574 L160.33559,15.274574 L160.33559,20.0182305 L160.33559,24.761887 L165.079247,24.761887 C169.158792,24.761887 169.822903,25.0465064 169.822903,26.6593497 C169.822903,28.367066 169.158792,28.5568123 161.758687,28.5568123 L153.694471,28.5568123 L153.694471,14.3258427 Z M181.587172,14.3258427 L181.682045,0.0948731304 L189.366768,0.0948731304 C195.533522,0.0948731304 197.620731,0.474365652 199.328447,1.89746261 C203.502865,5.3128953 201.700275,12.7129995 196.102761,14.6104621 C195.438649,14.8002083 196.482253,16.8874172 199.043828,20.3028499 C204.831089,27.9875735 204.925962,28.5568123 200.466925,28.5568123 C196.956619,28.5568123 196.577126,28.2721929 192.592455,22.2003125 L188.323164,15.7489397 L188.038545,22.2003125 L187.753925,28.5568123 L184.717985,28.5568123 L181.587172,28.5568123 L181.587172,14.3258427 Z M193.920679,10.91041 C197.051492,7.87446983 194.679664,2.94106704 190.125753,2.94106704 C188.038545,2.94106704 187.848798,3.32055957 187.848798,7.68472357 C187.848798,12.0488876 188.038545,12.4283801 190.125753,12.4283801 C191.453977,12.4283801 193.161694,11.7642682 193.920679,10.91041 Z" transform="translate(0 .805)"/>
</svg>
